X:274
M:C
L:1/8
K:F
c/B/|A<F A/B/c A2 F>A|B>G B/A/G/F/ E<G G>B|A<F A/B/c A2 F<A|
e|~f>c f/g/a/g/ f2 c<f|b>ag>f e<g g>a|~f>c f/g/a/g/ f2 c<f|e<c b>g a<f f>a|
~f>c f/g/a/g/ f2 c<f|b>ag>f e<g~gf/e/|d<bc<a B<gA<f|d/c/B/A/ G<c A<FF||

